svg/Pictogram/pictogram-din-p000-general.svg

<?xml version="1.0" encoding="UTF-8" standalone="no"?>
<!-- Created with Inkscape (http://www.inkscape.org/) --><svg height="574.01581" id="svg2" inkscape:version="0.44" sodipodi:docbase="/export/henning/reference/Sicherheitskennzeichnung" sodipodi:docname="DIN_4844-2_Verbot_D-P000.svg" sodipodi:version="0.32" version="1.0" width="574.01575" xmlns="http://www.w3.org/2000/svg" xmlns:cc="http://web.resource.org/cc/" xmlns:dc="http://purl.org/dc/elements/1.1/" xmlns:inkscape="http://www.inkscape.org/namespaces/inkscape" xmlns:rdf="http://www.w3.org/1999/02/22-rdf-syntax-ns#" xmlns:sodipodi="http://sodipodi.sourceforge.net/DTD/sodipodi-0.dtd" xmlns:svg="http://www.w3.org/2000/svg">
  <metadata>
    <rdf:RDF xmlns:cc="http://web.resource.org/cc/" xmlns:dc="http://purl.org/dc/elements/1.1/" xmlns:rdf="http://www.w3.org/1999/02/22-rdf-syntax-ns#">
      <cc:Work rdf:about="">
        <dc:title></dc:title>
        <dc:description></dc:description>
        <dc:subject>
          <rdf:Bag>
            <rdf:li>unsorted</rdf:li>
          </rdf:Bag>
        </dc:subject>
        <dc:publisher>
          <cc:Agent rdf:about="http://www.openclipart.org/">
            <dc:title>Open Clip Art Library, Source: Wikimedia Commons, Source: Wikimedia Commons, Source: Wikimedia Commons</dc:title>
          </cc:Agent>
        </dc:publisher>
        <dc:creator>
          <cc:Agent>
            <dc:title></dc:title>
          </cc:Agent>
        </dc:creator>
        <dc:rights>
          <cc:Agent>
            <dc:title></dc:title>
          </cc:Agent>
        </dc:rights>
        <dc:date></dc:date>
        <dc:format>image/svg+xml</dc:format>
        <dc:type rdf:resource="http://purl.org/dc/dcmitype/StillImage"/>
        <cc:license rdf:resource="http://en.wikipedia.org/wiki/Public_domain"/>
        <dc:language>en</dc:language>
      </cc:Work>
    </rdf:RDF>
  </metadata>
  <defs id="defs4"/>
  <sodipodi:namedview bordercolor="#666666" borderopacity="1.0" gridtolerance="10000" guidetolerance="10" height="157.40063mm" id="base" inkscape:current-layer="layer1" inkscape:cx="278.17187" inkscape:cy="278.85933" inkscape:document-units="mm" inkscape:pageopacity="0.0" inkscape:pageshadow="2" inkscape:window-height="966" inkscape:window-width="1272" inkscape:window-x="0" inkscape:window-y="0" inkscape:zoom="0.97371302" objecttolerance="10" pagecolor="#ffffff" units="mm" width="157.01257mm"/>
  <g id="layer1" inkscape:groupmode="layer" inkscape:label="Layer 1" transform="translate(-107.7265,-241.8202)">
    <g id="g3662">
      <path d="M 394.71875,250.46875 C 326.18909,250.46875 263.44353,275.41658 215,316.71875 C 213.72876,317.80259 212.47012,318.89377 211.21875,320 C 210.71618,320.44436 210.21807,320.89579 209.71875,321.34375 C 208.64773,322.30439 207.58722,323.27305 206.53125,324.25 C 206.24966,324.51059 205.96801,324.7695 205.6875,325.03125 C 204.43822,326.19659 203.19643,327.37453 201.96875,328.5625 C 200.56109,329.92463 199.16005,331.2961 197.78125,332.6875 C 196.42843,334.05268 195.07456,335.41961 193.75,336.8125 C 192.37577,338.25825 191.03084,339.7438 189.6875,341.21875 C 189.53376,341.3875 189.37208,341.54962 189.21875,341.71875 C 188.05739,343.00017 186.91901,344.29087 185.78125,345.59375 C 184.53889,347.01609 183.33873,348.45858 182.125,349.90625 C 182.0778,349.96255 182.01591,350.00617 181.96875,350.0625 C 141.47309,398.4411 117.0625,460.79516 117.0625,528.84375 C 117.0625,682.49918 241.44349,807.18748 394.71875,807.1875 C 463.3992,807.1875 526.25611,782.11453 574.75,740.65625 L 574.78125,740.6875 C 575.16763,740.3571 575.55296,740.01998 575.9375,739.6875 C 576.09353,739.55259 576.25052,739.4165 576.40625,739.28125 C 577.34651,738.46479 578.28959,737.64133 579.21875,736.8125 C 579.95241,736.15789 580.67961,735.50601 581.40625,734.84375 C 581.61393,734.65454 581.82414,734.47108 582.03125,734.28125 C 582.99901,733.39388 583.95116,732.4946 584.90625,731.59375 C 585.76503,730.78404 586.62031,729.97673 587.46875,729.15625 C 587.5852,729.04364 587.69624,728.92532 587.8125,728.8125 C 588.89951,727.75729 589.96151,726.69774 591.03125,725.625 C 591.34326,725.31227 591.65822,725.00171 591.96875,724.6875 C 593.22085,723.4199 594.45969,722.13514 595.6875,720.84375 C 595.80919,720.71582 595.94105,720.59691 596.0625,720.46875 C 597.46992,718.98283 598.87517,717.48547 600.25,715.96875 C 601.51105,714.57817 602.73561,713.16604 603.96875,711.75 C 604.19669,711.48819 604.42927,711.23142 604.65625,710.96875 C 605.71011,709.74945 606.7483,708.51894 607.78125,707.28125 C 648.11052,658.95828 672.40625,596.73012 672.40625,528.84375 C 672.40625,375.18832 547.99403,250.46874 394.71875,250.46875 z M 394.71875,312.53125 C 513.82431,312.53125 610.5,409.44263 610.5,528.84375 C 610.5,579.68908 592.98469,626.46416 563.65625,663.40625 L 259.15625,360.625 C 296.21143,330.56319 343.36954,312.53125 394.71875,312.53125 z M 226.09375,393.9375 L 530.65625,696.78125 C 493.53958,727.02084 446.23632,745.15625 394.71875,745.15625 C 275.61321,745.15622 178.96875,648.24487 178.96875,528.84375 C 178.96875,477.83839 196.60511,430.93376 226.09375,393.9375 z " id="path1979" style="fill:red;fill-opacity:1;stroke:red;stroke-width:1;stroke-miterlimit:4;stroke-dasharray:none;stroke-dashoffset:0;stroke-opacity:1"/>
      <path d="M -5.8095703 132.16772 A 64.268372 61.000488 0 1 1  -134.34631,132.16772 A 64.268372 61.000488 0 1 1  -5.8095703 132.16772 z" id="path1888" sodipodi:cx="-70.077942" sodipodi:cy="132.16772" sodipodi:rx="64.268372" sodipodi:ry="61.000488" sodipodi:type="arc" style="fill:none;fill-opacity:1;stroke:black;stroke-width:0.19354904;stroke-linecap:square;stroke-miterlimit:4;stroke-dasharray:none;stroke-dashoffset:0;stroke-opacity:1" transform="matrix(4.45888,0,0,4.697749,707.2035,-92.06267)"/>
    </g>
  </g>
</svg>

<svg xmlns="http://www.w3.org/2000/svg" viewBox="0 0 574.02 574.02"><g transform="translate(-107.73-241.82)"><path d="m394.72 250.47c-68.53 0-131.28 24.948-179.72 66.25-1.271 1.084-2.53 2.175-3.781 3.281-.503.444-1 .896-1.5 1.344-1.071.961-2.132 1.929-3.188 2.906-.282.261-.563.519-.844.781-1.249 1.165-2.491 2.343-3.719 3.531-1.408 1.362-2.809 2.734-4.188 4.125-1.353 1.365-2.707 2.732-4.03 4.125-1.374 1.446-2.719 2.931-4.063 4.406-.154.169-.315.331-.469.5-1.161 1.281-2.3 2.572-3.438 3.875-1.242 1.422-2.443 2.865-3.656 4.313-.047.056-.109.1-.156.156-40.496 48.38-64.906 110.73-64.906 178.78 0 153.66 124.38 278.34 277.66 278.34 68.68 0 131.54-25.07 180.03-66.53l.031.031c.386-.33.772-.668 1.156-1 .156-.135.313-.271.469-.406.94-.816 1.883-1.64 2.813-2.469.734-.655 1.461-1.306 2.188-1.969.208-.189.418-.373.625-.563.968-.887 1.92-1.787 2.875-2.688.859-.81 1.714-1.617 2.563-2.438.116-.113.227-.231.344-.344 1.087-1.055 2.149-2.115 3.219-3.188.312-.313.627-.623.938-.938 1.252-1.268 2.491-2.552 3.719-3.844.122-.128.254-.247.375-.375 1.407-1.486 2.813-2.983 4.188-4.5 1.261-1.391 2.486-2.803 3.719-4.219.228-.262.461-.519.688-.781 1.054-1.219 2.092-2.45 3.125-3.688 40.33-48.32 64.62-110.55 64.62-178.44 0-153.66-124.41-278.38-277.69-278.37zm0 62.06c119.11 0 215.78 96.91 215.78 216.31 0 50.845-17.515 97.62-46.844 134.56l-304.5-302.78c37.06-30.06 84.21-48.09 135.56-48.09zm-168.62 81.41l304.56 302.84c-37.12 30.24-84.42 48.37-135.94 48.37-119.11 0-215.75-96.91-215.75-216.31 0-51.01 17.636-97.91 47.12-134.91z" fill="#f00" stroke="#f00"/><path d="M-5.80957 132.16772A64.26837 61.00049 0 1 1 -134.34631 132.16772 64.26837 61.00049 0 1 1 -5.80957 132.16772z" transform="matrix(4.45888 0 0 4.69775 707.2-92.06)" fill="none" stroke="#000" stroke-linecap="square" stroke-width=".194"/></g></svg>
